papirus/16x16/mimetypes/video-x-generic.svg

<?xml version="1.0" encoding="UTF-8" standalone="no"?>
<svg
   xmlns:dc="http://purl.org/dc/elements/1.1/"
   xmlns:cc="http://creativecommons.org/ns#"
   xmlns:rdf="http://www.w3.org/1999/02/22-rdf-syntax-ns#"
   xmlns:svg="http://www.w3.org/2000/svg"
   xmlns="http://www.w3.org/2000/svg"
   xmlns:sodipodi="http://sodipodi.sourceforge.net/DTD/sodipodi-0.dtd"
   xmlns:inkscape="http://www.inkscape.org/namespaces/inkscape"
   id="svg2"
   height="16px"
   width="16px"
   version="1.1"
   viewBox="0 0 16 16"
   inkscape:version="0.91 r"
   sodipodi:docname="video-x-generic.svg">
  <defs
     id="defs10" />
  <sodipodi:namedview
     pagecolor="#ffffff"
     bordercolor="#666666"
     borderopacity="1"
     objecttolerance="10"
     gridtolerance="10"
     guidetolerance="10"
     inkscape:pageopacity="0"
     inkscape:pageshadow="2"
     inkscape:window-width="1535"
     inkscape:window-height="876"
     id="namedview8"
     showgrid="false"
     inkscape:zoom="38.93"
     inkscape:cx="8"
     inkscape:cy="8"
     inkscape:window-x="65"
     inkscape:window-y="24"
     inkscape:window-maximized="1"
     inkscape:current-layer="svg2" />
  <metadata
     id="metadata15">
    <rdf:RDF>
      <cc:Work
         rdf:about="">
        <dc:format>image/svg+xml</dc:format>
        <dc:type
           rdf:resource="http://purl.org/dc/dcmitype/StillImage" />
      </cc:Work>
    </rdf:RDF>
  </metadata>
  <path
     style="fill:#8a94d1"
     inkscape:connector-curvature="0"
     d="M 14,13.332 14,2.668 C 14,2.2969 13.711,2 13.352,2 L 1.648,2 C 1.2891,2 1,2.2969 1,2.668 L 1,13.332 C 1,13.703 1.2891,14 1.6484,14 l 11.703,0 c 0.36,0 0.649,-0.297 0.649,-0.668 z"
     id="path5" />
  <path
     style="fill:#ffffff"
     inkscape:connector-curvature="0"
     d="m 4.3362074,6.0003333 4.3537926,0 c 0.3362074,0 0.31,0.3558889 0.31,0.3558889 L 9,10.644444 C 9,11 8.69,11 8.69,11 L 4.3362074,11 C 4.3362074,11 4,11 4,10.644444 L 4,6.3558889 C 4,6.3558889 4,6 4.3362074,6 Z M 11,7 11,10 9,8.5003333 Z"
     id="path7"
     sodipodi:nodetypes="cscsccsccccccc" />
  <path
     style="fill:#ffffff;fill-opacity:0.2"
     inkscape:connector-curvature="0"
     d="M 1.6484,2 C 1.2891,2 1,2.2969 1,2.668 l 0,0.5 C 1,2.7969 1.2891,2.5 1.6484,2.5 l 11.703,0 c 0.36,0 0.649,0.2969 0.649,0.668 l 0,-0.5 C 14.0004,2.2969 13.7114,2 13.3524,2 Z"
     id="path9" />
</svg>

<?xml version="1.0" encoding="UTF-8" standalone="no"?>
<svg id="svg2" xmlns:rdf="http://www.w3.org/1999/02/22-rdf-syntax-ns#" xmlns="http://www.w3.org/2000/svg" height="16px" width="16px" version="1.1" xmlns:cc="http://creativecommons.org/ns#" viewBox="0 0 16 16" xmlns:dc="http://purl.org/dc/elements/1.1/">
 <metadata id="metadata15">
  <rdf:RDF>
   <cc:Work rdf:about="">
    <dc:format>image/svg+xml</dc:format>
    <dc:type rdf:resource="http://purl.org/dc/dcmitype/StillImage"/>
   </cc:Work>
  </rdf:RDF>
 </metadata>
 <path id="path5" fill="#8a94d1" d="m14 13.332v-10.664c0-0.3711-0.289-0.668-0.648-0.668h-11.704c-0.3589 0-0.648 0.2969-0.648 0.668v10.664c0 0.371 0.2891 0.668 0.6484 0.668h11.703c0.36 0 0.649-0.297 0.649-0.668z"/>
 <path id="path7" fill="#fff" d="m4.3362 6.0003h4.3538c0.33621 0 0.31 0.35589 0.31 0.35589v4.2878c0 0.356-0.31 0.356-0.31 0.356h-4.3538s-0.3362 0-0.3362-0.356v-4.2881s0-0.3559 0.3362-0.3559zm6.6638 0.9997v3l-2-1.4997z"/>
 <path id="path9" fill-opacity=".2" fill="#fff" d="m1.6484 2c-0.3593 0-0.6484 0.2969-0.6484 0.668v0.5c0-0.3711 0.2891-0.668 0.6484-0.668h11.703c0.36 0 0.649 0.2969 0.649 0.668v-0.5c0-0.3711-0.289-0.668-0.648-0.668z"/>
</svg>
